studio-client/apps/main/content-hub-adapter-unsplash/src/icons/unsplash_16.svg

<svg xmlns="http://www.w3.org/2000/svg" version="1.1" viewBox="0 0 32 32" width="32" height="32">
  <path d="M10 9V0h12v9H10zm12 5h10v18H0V14h10v9h12v-9z"></path>
</svg>

<?xml version="1.0" encoding="UTF-8" standalone="no"?>
<!DOCTYPE svg PUBLIC "-//W3C//DTD SVG 1.1//EN" "http://www.w3.org/Graphics/SVG/1.1/DTD/svg11.dtd">
<svg width="100%" height="100%" viewBox="0 0 16 16" version="1.1" xmlns="http://www.w3.org/2000/svg" xmlns:xlink="http://www.w3.org/1999/xlink" xml:space="preserve" xmlns:serif="http://www.serif.com/" style="fill-rule:evenodd;clip-rule:evenodd;stroke-linejoin:round;stroke-miterlimit:2;">
    <g transform="matrix(0.4375,0,0,0.4375,1,1)">
        <path d="M10,9L10,0L22,0L22,9L10,9ZM22,14L32,14L32,32L0,32L0,14L10,14L10,23L22,23L22,14Z" style="fill:rgb(222,12,12);fill-rule:nonzero;"/>
    </g>
</svg>
